X:464
T: Shiliu hua kai yezi duo
N: C1499
O: China, Yunnan, Nanhua
S: II, 91]
R: Shange]
M: 2/4
L: 1/16
K: D
BB3e2fe | d2e2fedB- | B8
d2e2d2B2 | d2BAAFED | B,8
e2fde2f2 | f2fde2f2e2f2 | B2f2ee3 | B2f2ee3
B2d2BGA2 | BBAFFEED | B,12
GG3G2B2G2B2 | d2G2GG3 | d2G2GG3 | A2F2FEED | B,8z4

